X:402
T: Papa, Mama, der Klppermann ist da (4-99), S. 133
N: P0672
O: Lothringen
S: PINCK, Louis: Verklingende Weisen Bd 4, Kassel 1939]
R: Tanzweise]
M: 2/4
L: 1/16
K: F
c2 | c6B2 | A6G2 | F2F2B2G2 | G6
CC | B2B2B2A2 | G6F2 | E2E2E2E2 | F6
A2 | ccccc2A2 | c2c2z2
c2 | ddd2d2B2 | d2d2z2
d2 | ccccc2A2 | c6
B2 | A2F2G2G2 | F4z2

